X:1
T:Ballade No. 4 in F Minor
T:Op. 52
T:Frédérick Chopin
%%score { ( 1 2 5 ) | ( 3 4 6 ) }
L:1/8
Q:1/4=40
M:6/8
K:Ab
V:1 treble nm="Piano"
V:2 treble 
V:5 treble 
V:3 bass 
V:4 bass 
V:6 bass 
V:1
"^Freely, with expression"!pp! [Gg][Gg]!pp![Gg][Q:1/4=46] [Gg]!p![Gg]!p![Gg] | %1
 [Gg]!p![Gg]!mp![Gg]!mf! [Gg]!mp![Ff][=E=e] | [=E=e][Q:1/4=40][=D=d][Cc]!pp![Q:1/4=46] e3 | %3
!p![Q:1/4=40] !arpeggio![=Eg][Gg]!mp![Gg][Q:1/4=46] [Gg]!mp![Ff][E=e] |!p! [=E=e][=D=d][Cc] e3 | %5
[Q:1/4=44] [=E=e][=D=d][Cc] e3-[Q:1/4=42] | %6
 e3-[Q:1/4=36][Q:1/4=24] !fermata!e2[Q:1/4=48]"^a tempo"!pp! c- | c_d=B- B!p!cf | %8
[Q:1/4=56] =e_B d2 cf | =eBd z c/d/!mp!c/d/ | _e[Q:1/4=48]e!mf!e e!mp![Q:1/4=56]d/c/!p!B/c/ | %11
 A z z4[Q:1/4=48]"^rit." | z!p![Q:1/4=56]"^a tempo" ea gd_f- | fea gd_f | %14
 z!<(! e/=f/e/f/ _g!mp![Q:1/4=48]g!<)!g | %15
!mf!!>(! _g!mp![Q:1/4=56]f/c/e/!>)!!p!d/ B[Q:1/4=48]"^rit." z z | %16
 z[Q:1/4=56]"^a tempo" d/e/!mp!!<(!d/e/ f!mf![Q:1/4=48]ff!<)! | %17
!>(! f!mp![Q:1/4=56]e/B/d/!>)!!p!c/ =A cf | =eB d2 cf | =eBd z!<(! c/d/c/d/ | %20
 _e[Q:1/4=48]"^rit."e!<)!!mp!e!mf! e!mp![Q:1/4=56]"^a tempo"!>(!f/c/e/!p!d/ | B3!>)! =G2 z | %22
 z cf =eBd- | dcf- f/=e/B/c/_e/d/ | z!<(! c/d/c/d/ e[Q:1/4=48]"^rit"!mp!e!<)!e | %25
!mf! e!mp![Q:1/4=56]"^a tempo"!>(!d/c/B/!p!c/!>)! A z z | %26
 z2 z[Q:1/4=56]"^a tempo" z!mp! e!mf!a[Q:1/4=48]"^rit." | gd _f2 ea- | %28
 a/g/d/e/_g/_f/ z!<(! e/=f/e/f/ | %29
 _g[Q:1/4=48]"^rit."!f!g!<)!g!>(! g!mf![Q:1/4=56]"^a tempo"f/c/!mp!e/d/!>)! | %30
!p! B[Q:1/4=48]"^rit." z z[Q:1/4=56]"^a tempo" z!mp!!<(! d/e/d/e/ | %31
 f!mf![Q:1/4=48]f!<)!f!>(! f!mp![Q:1/4=56]e/B/d/!>)!!p!c/ | =A!p! cf =eBd- | %33
 d!<(!cf- f/=e/!mp!B/c/_e/!<)!d/ | z!p!!<(! c/d/c/d/ e!mp![Q:1/4=48]"^rit."e!<)!e | %35
!>(! e[Q:1/4=56]"^a tempo"f/!p!c/e/d/!>)! B2 z | z6[Q:1/4=48][Q:1/4=42] | %37
[Q:1/4=56]"^a tempo" z2 z!p! [_GB_g]2 [GBg] |[Q:1/4=60] [_GB_g]6- | %39
 [GBg]3[Q:1/4=56] [_GB_g]2 [GBg] | [_GB_g]3[Q:1/4=48] [FAf]3 | [_FA_f]3 [FAf]2 [FAf][Q:1/4=56] | %42
[Q:1/4=60] [_FA_f]6- |[Q:1/4=56] [FAf]3[Q:1/4=48]!<(! [_FA_f]2!p! [FAf]!<)! | %44
 [_FA_f]3!pp!!>(! [Ee]3[Q:1/4=56] |[Q:1/4=60] =D!>)!!p!!<(! =d/e/d/e/ =f!mp!ff | %46
 f!mf!_g/f/e/!<)!A/!f! _c'3[Q:1/4=56] |[Q:1/4=60] z!p!!<(! =d/e/d/e/ f!mp!ff | %48
 f!mf!_g/f/e/!<)!=A/!f! =c'3[Q:1/4=56] | %49
[Q:1/4=60] b3!mp! T=g/4a/4g/4a/4g/8a/8g/8a/8g/8a/8g/8a/8f/g/ | ba/e/a/_g/!mf! g f2 | %51
!mf! a_g/d/g/f/!mp! fe/f/a/!p!g/ | =A!p!c/d/c/!mp!d/ e2 [Bd] | %53
!<(! [Bd][Bd]/!mp![ce]/[Bd]/[ce]/!mf! [B_f]2!mf! [Be] | %54
 [Be]!f![Q:1/4=54]"^rit." e/f/e/f/!ff![Q:1/4=48] _gg!<)![Q:1/4=36]g | %55
[Q:1/4=24]"^ten."!ff! _g3-[Q:1/4=56]"^a tempo" g!p!f/c/e/d/ |[Q:1/4=56] B3 =G z z | %57
 z!p! c!mp![cf]!mp! [d=e]!p!B!p!d- |!p!!<(! d!p!c!<)!!mp![cf]!mp! [d=e]!p!B!p!d | %59
!<(! [Cc]!mp![Ac]/[Bd]/[Ac]/[Bd]/!<)!!mf! [Ee]!mf![Ee][Ee] | %60
!mf!!>(! [De]!mp!d/c/B/c/ A!>)!!<(! z2[Q:1/4=66] | %61
[Q:1/4=70] z2 z!<)!!f![Q:1/4=66]"^più mosso a tempo" [Cc]!f! [ce]!f![cea] | %62
!f! g!f!d!f!_f- f!f!e!ff![ea] |!ff! g!ff!d!ff!_f z!ff! e/=f/e/f/ | %64
!ff! [_G_g]!ff![Q:1/4=56][Gg]!ff![eg]!f!!>(! !arpeggio![Eg]!mf![Q:1/4=66]f/c/e/!>)!d/ | %65
!mp!!<(! B2-[Q:1/4=72] B/!mf![Ac]/!<)![Q:1/4=66]"^a tempo" [Bd]!f!d/e/d/e/ | %66
!f! [Ff]!f![df]!f![Q:1/4=54]"^rit."[df][Q:1/4=48]"^ten."!fff! f!f![Q:1/4=66]"^a tempo"e/B/d/c/ | %67
 =A/[Q:1/4=72]"^accel." z/!f! [CAc][FAf] [=EB=e][EB][Ed] | %68
!<(! [CF=A]/ z/ [c=ac'][faf'] [=eb=e'][eb][ed'] | %69
 [dbd']/[c=ac']/ [cac']/[dbd']/[_ec'_e']/[fd'f']/ [_ge'_g'][ge'g']!<)![ge'g'] | %70
 [_ge'_g'][K:bass][Q:1/4=66] [_G,_CE][G,CE][Q:1/4=60] [G,CE][E,__B,_G][G,B,G] | %71
[Q:1/4=66] D/>!mp!!<(![E,__B,_C]/[K:treble] _F/!mf!E/A/_G/!<)!!f! _c/!p!!<(!G/!mp!G/=F/!mf!__B/A/!<)! | %72
!f! d/!p!!<(!A/!mp!A/=G/!mf!_c/!<)!B/!f! e/!p!!<(!B/!mp!B/=A/!mf!d/=c/!<)! | %73
!f! _g/!p!f/!mp!b/[Q:1/4=78]=a/!mf!d'/c'/!f![Q:1/4=88]"_accel." f'/e'/!mf!!8va(!_g'/[Q:1/4=96][c'e'f']/!mp!=g'/[c'e'f']/ | %74
!mp![Q:1/4=132]!<(! _g'/[c'e'f']/!mf!=g'/[c'e'f']/!f!_g'/!<)![c'e'f']/!>(! =g'/[c'e'f']/!mf!_g'/[c'e'f']/!mp!=g'/!>)![c'e'f']/ | %75
!f![Q:1/4=164]!>(! =e'/f'/f''/^f'/f''/g'/ ^g'/=a'/=d''/c''/b'/=g'/!8va)! | %76
 f'/=d'/e'/g'/f'/e'/ c'/=a/b/d'/c'/b/ | g/f/=d/!mf!e/g/f/ e/c/!>)!!mf!=A/B/d/c/ | %78
 B/G/F/=D/E/G/ F/E/C/=A,/C/G,/ |[Q:1/4=78] F,2!p![Q:1/4=66]"^a tempo" [F,=A,=D] D2 [A,D] | %80
 =D2 [DB] D3 |!p! ^C2 [C=A] C2 [^F,=C] | B,2 [G,C_E] [=F,B,=D]2[Q:1/4=66] [F,=A,C] | %83
 [F,B,=D] z [DF=d] [CD^Fd]3 | [=DGB]2 [B,EG]{/G=A} [B,EG]2 [=A,EF-] | %85
 [B,=DF] z [DF=d] [DB]2[Q:1/4=54] [GBg]- |!<(! [GBg][Bf]!<)!!mp![B=e]!>(! [_ABf]3- | %87
!p! [ABf]2!>)![Q:1/4=60] [=DAB] B3 |!p! B2 [EGe] [EGe]2 [CEG] | %89
 [CEG]2 [B,=DB]!mp! [B,DB]2 [B,=Ec] | [_EF]6 | [=DF]2!p! [D=d] [Dd]2 [DB] | %92
 [=DB]2 [DG]{/G=A} [B,EG]2 [E=F] | [=DF]2!mp! [^F=d] [GB]2[Q:1/4=54] [GBg]- | %94
 [GBg][FBf][=EB=e] [FBf]3- | [FBf]2!p! [=DAB] B3- | B2 [Ge] [Ge]3- | %97
 [Ge]2!<(! [CG] [B,=DB]2!mp! [B,=Ec]!<)! | %98
[Q:1/4=40]"^rall." !arpeggio![=A,_Ec]2 [B,=DB] [B,DB]2[Q:1/4=82]"^a tempo" D- | %99
 D/E/=D/[Q:1/4=90]"^accel."=A/^F/E/ D/E/D/B/G/E/ | %100
!<(! ^F,/E/=D/^F/!mp!c/=d/ ^f/c'/!mf!c'/!<)![Q:1/4=48]"^ten."=a'/z/[Q:1/4=90]"^a tempo"[bg']/ | %101
!>(! =a/^f'/!mp![g_e']/^f/=d'/[ec']/ =d/!p!b/[c=a]/e/c'/!>)![db]/ | %102
 c/=a/[=db]/[=A^f]/[ca]/z/4[Bg]/4[Q:1/4=48]"^ten." [Bg]/[Q:1/4=78]"^rall." .^F/F/=F/F/=E/- | %103
[Q:1/4=90]"^a tempo" E/F/=E/=B/^G/F/ E/!mf!F/E/c/=A/F/ | %104
!<(! ^G,/!f!F/=E/^G/=d/=e/ ^g/=d'/d'/!<)!!ff![Q:1/4=48]"^ten."=b'/z/[Q:1/4=90]"^a tempo"[c'=a']/ | %105
!>(! c'/=a'/!f![=b^g']/=a/f'/[^g=e']/ f/!mf!=d'/[=ec']/[=db]/!mp![fd']/!>)![ec']/ | %106
!p! =d/=b/[=ec']/[=B^g]/[db]/[c=a]/- [ca]/[Q:1/4=76]"^rit."[ca][ca][ca]/ | %107
 [c=a]/[Q:1/4=90]"^a tempo"[=d_b][ca][_ec']/- [ec']/[db]!mp![c^f]/[Bg]/[db]/- | %108
 [db]/[c=a]!p![=db]/[=A^f]/[ca]/[Q:1/4=76]"^rit." [ca]/[Bg]/{/g_a}[Bg]/[Af][Bg]/- | %109
[Q:1/4=90]"^a tempo" [Bg]/[c_a][Bg][_db]/- [db]/[ca][B=e]/[Af]/[ca]/- | %110
 [ca]/[Bg][ca]/[G=e]/[Bg]/!p! [Bg]/[Af]/{/fg}[Af]/[Ge][Af]/ | %111
 [Af]/[Q:1/4=48]"^ten."[B_g][Q:1/4=90][Af]/[_Ge]/[Bg]/ [Af]/[Bg]/[Af]/[Gc]/[Fd]/[Af]/ | %112
 [=Ge]/[Af]/[Ge]/f/[Fd]/e/[Q:1/4=76]"^rit." [Ec]/d/[DB]/c/[CA]/ z/ | %113
!f![Q:1/4=90]"^a tempo" [af']/[b_g'][af']/[_ge']/[bg']/ [af']/[bg']/[af']/[gc']/[fd']/[af']/ | %114
 [=ge']/[af']/[ge']/f'/[fd']/e'/ [ec']/d'/[db]/c'/[ca]/f'/ | %115
 [ge']/f'/[ge']/f'/[fd']/e'/[Q:1/4=76]"^rit." [ec']/d'/[db]/c'/[ca]/ z/ | %116
!ff![Q:1/4=90]"^a tempo"!8va(! [g'e'']/f''/[g'e'']/f''/[f'd'']/e''/ [e'c'']/!f!d''/[d'b']/c''/[c'a']/b'/ | %117
 [bg']/!mf!a'/[af']/g'/[ge']/f'/!8va)! [fd']/!mp!e'/[ec']/d'/[db]/c'/ | %118
 [ca]/b/[Bg]/a/!>(![Af]/g/ [Ge]/!p!f/[Q:1/4=76]"^poco rit."[Fd]/e/[Ec]/d/!>)! | %119
!pp!!<(! TB/4c/4B/4c/4B/8c/8B/8c/8B/8c/8B/8c/8B/8c/8B/8c/8B/8c/8B/8c/8!p! =A/!<)!B/!>(!c/!mp!B/d/!>)!G/ | %120
[Q:1/4=84]"^a tempo" A3-!mp! A=G/!mf!A/=G/A/ | __B!mp!A_G!p! _F-F/!p!E/{/_G}F/E/ | %122
 A2!p! A- A=G/A/=G/A/ | _c/!mp!__B/B/A/A/_G/ _F/!mf!E/_c/[Q:1/4=72]_B/!f!_f/e/ | %124
[Q:1/4=60]!f! a[Q:1/4=84]aa age[Q:1/4=76] |[Q:1/4=60] _g[Q:1/4=84]gg g3 | %126
!f![Q:1/4=60] _g[Q:1/4=84]gg[Q:1/4=76]!mf! gfc |[Q:1/4=70]"^ritard" =e!mp!ee!p![Q:1/4=60] e2 =B- | %128
"^a tempo" B/=A/!p![Q:1/4=54]"^= 54" =ee[Q:1/4=60] e=d^c | ^c=B=A c3 | %130
[Q:1/4=54] =ee!mp!e[Q:1/4=60] e=d^c | ^c=B=A c3 |!p![Q:1/4=60] ^c=B=A[Q:1/4=54] c3- | %133
[Q:1/4=42]"_rit."!pp!!ppp! c3-[Q:1/4=36][Q:1/4=30] !fermata!c3 | %134
[Q:1/4=96] x3 ^c'/[Q:1/4=40]=a'/[Q:1/4=96]c'/{/=e'}=d'/c'/=a/ | %135
 =e/{/g}=f/e/=a/^c/{/e}=d/ c/=A/=E/[Q:1/4=76]"_rallent."{/G}=F/E/A/ | %136
[Q:1/4=60] =E/{/G}F/E/[Q:1/4=48]=A/E/{/G}F/ E/[Q:1/4=24] !fermata!A- A/_B/^G/ | %137
!p![Q:1/4=60]"^a tempo" =A_B=d[Q:1/4=66] ^c=GB | =AB=d ^cGB |[Q:1/4=60] z =A/B/A/B/ c!mp!c!mp!c | %140
[Q:1/4=54] cB/!p!=A/G/A/ F z z |[Q:1/4=60] z2 z[Q:1/4=66] cdf | =eBd z[Q:1/4=60]!<(! c/d/c/d/ | %143
 e!mp!e!<)!!mp!e[Q:1/4=54] ed/!p!c/B/c/ | A z z[Q:1/4=60] z2 z |!p![Q:1/4=66] e_fa gdf | %146
 z[Q:1/4=60]!<(! e/_f/e/f/ _g!mp!g!<)!!mp!g |[Q:1/4=54]!>(! _g=f/=c/!p!e/d/!>)! B z z | %148
 z[Q:1/4=60]!<(! d/e/d/e/ f!mp!f!<)!f |[Q:1/4=54]!>(! fe/!p!B/d/c/!>)! =A[Q:1/4=60] cf | %150
 =eBd z cf- | f/=e/B/!mp!c/_e/d/ z[Q:1/4=60]!mp!!<(! c/d/c/d/ | %152
!>(! e!<)!!mf!ee[Q:1/4=54] ef/!mp!c/e/d/ |[Q:1/4=60] B3!>)!!p! G2 z | %154
!p![Q:1/4=66] z!<(! cf!<)!!mp![Q:1/4=72] (8:6:8f/=e/!>(!=A/B/!p!=B/c/_e/!>)!d/ | %155
 (8:6:8z/ c/d/=B/c/a/g/f/ f/=e/ (7:4:7z/ =A/_B/=B/c/_e/d/ | %156
 z!<(! (6:4:6c/d/c/=B/c/d/ (5:3:5=d/!mp!e/c'/g/_b/(5:3:5a/c/!mp!_d/=d/!<)!e/ | %157
!>(! (5:3:5=e/g/f/!mp!_e/c/(5:3:5e/d/!p!F/G/!>)!E/[Q:1/4=60] A z z | %158
 z2 z[Q:1/4=48]"_ten." z ea-[Q:1/4=72] | %159
 (3a/g/=B/(3c/d/=d/!<(!(3e/_g/_f/ z/ e/(3=f/!mp!=d/e/(3c'/b/=a/!<)! | %160
!>(! (3_a/g/=B/!p!(3c/d/=d/(3e/_g/!>)!_f/ z!<(! (3e/=f/e/(3=d/!mp!e/f/ | %161
!mp! (3_g/!<)!!mf!_g'/!>(!f'/(3_f'/!mp!e'/d'/(3c'/b/a/ (3g/!mp!=f/=e/(3_e/!p!d/=B/(3c/e/!>)!d/ | %162
 (3c/_B/ z/ z z z!<(! (3d/e/d/(3c/!mp!d/e/ | %163
 (3f/f'/c'/(3e'/!mp!d'/a/(3f/e/!<)!d/!>(! (3:2:6T_c/4d/4!mp!c/4d/4c/4B/4!p!(3c/!>)!d/e/(3=A/=c/B/ | %164
 (3=A/!<(!c/=e/(3_g/!mp!f/=a/(3c'/!mp!f/!<)!f'/!mp!!>(! (3=e'/c'/_e'/[Q:1/4=78](3d'/!p!b/!>)!=g/(3=e/d/B/ | %165
[Q:1/4=86] (3=A/c/!<(!=e/!mp!(3_g/f/!mf!=a/[Q:1/4=96](3c'/!<)!!ff!!8va(!f'/f''/!>(! (3=e''/c''/_e''/(3d''/b'/!>)!!mf!g'/!8va)!(3=e'/!mp!d'/b/ | %166
!<(! (3=a/c'/!mf!_e'/(3f'/!<)!_a'/_g'/!>(!(3e'/!mp!c'/a/ (3_g/e/!>)!c/(3=A/B/=B/(3c/_d/_B/ | %167
!<(! (3=A/c/e/!<)!!mf!(3f/_a/_g/(3e/c/!>(!=A/!mp! (3_G/E/C/!>)!!p!(3=A,/B,/=B,/(3C/D/_B,/ | %168
!p! (3=A,/B,/=B,/(3C/D/_B,/(3A,/B,/=B,/ (3C/D/_B,/(3A,/B,/=B,/(3C/D/_B,/ | %169
!<(! (3=A,/!mp!C/E/!mf!(3F/!<)!c/_A/!>(!(3G/_G/F/!mp! (3_F/E/=D/(3_D/!mp!C/_C/[I:staff +1](3B,/A,/_A,/ | %170
[I:staff -1] x6!>)![Q:1/4=96]"_poco rit."[Q:1/4=80][Q:1/4=72] | %171
[Q:1/4=24]"_ten." z2!p! f f3[Q:1/4=86]"^a tempo"[Q:1/4=72] |[Q:1/4=86] d2 B B2 A[Q:1/4=72] | %173
!p![Q:1/4=86]!<(! A2!p! f d2!<)!!mp! b[Q:1/4=72] |[Q:1/4=86]!>(! b!p!a=g!>)!!p! a3 | a2 d d3- | %176
 d3!pp! d2!p! _g[Q:1/4=72][Q:1/4=80] | %177
!p! _g (3:2:2x/!p! B (6:4:3x!p! c x!p! (3:2:2d x/ (3:2:2x/!mp! g | %178
 (6:4:3x!mp! f!p! x!mf! f (3:2:2x/!mf! e (6:4:3x!mf! cB | %179
!mp!!>(! [B,B]!>)!!p![A,A]!f! [faf'] [faf']2 [dad'] | [dfd']!mp!F!f![db] [_gb]2!f! [ca] | %181
 [Afa]2!f! [faf'] [dad']2[Q:1/4=72]"_ten." [=gd'b'][Q:1/4=72] | %182
[Q:1/4=80]!>(! [be'b'][ae'a']!mf![ge'g']!>)! [ae'a']2!mp! [Aa] | [Aea]2 [Ad]!<(! d2!mp! [d_g]!<)! | %184
 [F_cdf]2!mf! [cdf_c']!>(! [cd_gc']2!mp! [Bdb]!>)! | [Bdeb]2 [EBde]!<(! [Ece]2!mp! [Aea] | %186
!mf! [Aa]!<)![Gg] [degd']!>(! [dead']2!mp! [ceac'] | %187
[Q:1/4=72]"^rit." [c_gc'][Bdgb][_Gdg]!p! [DGd][B,DB]>!>)![A,DA] | %188
[Q:1/4=80]"^a tempo" [A,DA]2 [_G,D_G]- [G,DG][F,DF]>[G,DG] | %189
!mp! [=G,DF=G]2!p! [G,FG]!mf! [A,FA]2!mp! [=A,F=A] |!f! [CFc]2!mp! [B,FB]!f! [DGd][=B,G=B][CGc] | %191
 [EAe]2!mp! [DAd] z!mf! [^Dc^d][=Ec=e] |!f! (3c/_e/d/ x x4 | %193
!f![Q:1/4=88]"^accel." [Fdf] (3z/!<(! F/A/!mf!(3f/f/!<)!a/!f! (3f'/!mf!!>(!a/f/!mp!(3f/A/F/!>)!(3F/A,/F,/ | %194
 (3E/!mp!!<(!F,/=A,/(3F/F/=A/(3f/f/!<)!=a/!ff! (3f'/!f!!>(!a/f/!mf!(3f/A/F/(3F/A,/!>)!F,/ | %195
!f!!<(! (3F/!mp!F,/B,/!mf!(3F/F/B/!f!(3f/f/!<)!b/!ff! (3f'/!f!!>(!b/f/!mf!(3f/B/F/!mp!(3F/B,/!>)!F,/ | %196
!f! (3=G/!mp!G,/=B,/!mf!(3G/F/=B/!f!(3g/f/=b/!ff! (3g'/!f!!>(!b/f/!mf!(3g/B/F/(3G/B,/!>)!F,/ | %197
 [A,CFA] x x (3F/A/=B/(3c/f/a/(3=b/c'/f'/ |!fff! a' [FAdf] [DAd] [_Gd_g] [=E=Gc=e] [c=gc'] | %199
 [cfc'] x x (3F/A/=B/(3c/f/a/(3=b/c'/f'/ | a'!f! [FAdf] [F,A,DF] [_G,D_G] [=G,C=E] [C=Gc] | %201
 [CFc] [=DF=B=d] [^D^FB^d] [F^A^c^f] [Bf=b][Q:1/4=96] [^GB^e^g] | %202
 [^A^c^f^a] [c^e^g^c'] [fc'^f'] [=e=gc'=e'] [=f=c'=f'] [_dfg_d'] | %203
 [=cfg=c'] z z[Q:1/4=72]"^ritard" CDF | %204
 [G,C=EG][Q:1/4=60][F,G,=B,=DG][G,CEG][Q:1/4=24] z !fermata!z2 |!pp![Q:1/4=52] [cgc']6 | %206
 [FG=B=dg]6 | [=EG_B=e]6 | [=DF=d]6 |[Q:1/4=72] [G,C=E]6- | [G,CE]6- | [G,CE]6- | [G,CE]2 z z2 z | %213
[Q:1/4=30]!p! (3A,/!f![Q:1/4=68][CA]/F/!<(!(3G,/[A,=B,]/A,/(3D/!ff![_B,C]/G/!<)! (3C/[FB]/A/!>(!(3G/!f!=A,/[B,F]/(3D/[B,C]/G/!>)! | %214
 (3:2:2x/!<(! A- (3:2:2A A/(3A3/4!<)!x/d/4-!>(! (3d/!f!c/=B/(3_B/!mf!=A/_A/-(3A/!>)!=G/c/ | %215
!p! (3A/!mf![ca]/f/!f!!<(!(3G/[A=B]/F/(3d/!ff![_Bc]/!<)!g/!>(! (3c/[fb]/a/(3g/!f!=A/[Bf]/!mf!(3d/[Bc]/!>)!g/ | %216
 (3:2:2x/ a- (3:2:2a a/(3a3/4x/d'/4-!>(! (3d'/!f!c'/=b/(3_b/!mf!=a/_a/-(3a/=g/!>)!c'/ | %217
 a x2!fff! _g x2 | %218
!fff! (3[GB]/!mp!!<(![^G=B]/[=Ac]/(3[_Bd]/[=B=d]/!mf![c_e]/(3[^c=e]/[df]/[^d^f]/ (3[e=g]/!f![^f=a]/[eg]/(3[df]/[eg]/[fa]/(3[g_b]/!ff![_a=c']/!<)![b_d']/ | %219
 (3[ac']/!fff![e'g']/!ff![bd']/(3c'/e'/d'/(3a/c'/b/ (3c/[gb]/[fa]/(3A/!mp![eg]/[df]/(3G/!mf![c=e]/B/ | %220
 (3B/[eg]/f/-!>(!(3f/_e/d/-(3d/c/!>)!B/ AG-!<(!(3[=EG]3/4x/!<)![_Ec]/4 | %221
 (3[=DF]3/4x/[_DB]/4(3[CE]3/4x/[CA]/4(3[=B,=D]3/4x/[_B,G]/4 (3[=A,C]3/4x/[_A,F]/4[G,_DF][G,C=E] | %222
[K:bass]!mf! [C_E] [B,D]2!f! C2!f! [F,A,F] | [F,G,F]!ff![F,=A,][F,B,] [G,B,C]!fff![_A,C_A][B,C=E] | %224
!>(! [A,CF]!ff![_G,C_E][F,B,D]!>)!!f! [F,A,C]2 [=E,B,C] | %225
[K:treble]!ff! (3[^G,_E]/!mf!=A,/!<(![C_G]/(3[=D=A]/E/[Gc]/(3[^G_e]/A/[c_g]/ (3[=d=a]/e/[gc']/!8va(!(3[^ge']/=a/[c'_g']/!ff![Q:1/4=60](3[=d'=a']/e'/!<)![g'c'']/ | %226
!fff! [=a'e'']!8va)![Q:1/4=68] [=A,C=A][B,FB]!ff! [DFBd][C=EBc][=E,B,E] | %227
 (3[^G,_E]/!mf!!<(!=A,/[C_G]/(3[=D=A]/E/[Gc]/(3[^G_e]/A/!f![c_g]/ (3[=d=a]/e/[gc']/!8va(!(3[^ge']/a/[c'_g']/!ff![Q:1/4=60](3[=d'=a']/e'/!<)![g'c'']/ | %228
!fff! [=a'e'']!8va)!!f![Q:1/4=68]!<(! [=Ac=a][Bfb]!ff! [dfbd'][c=ebc']!<)!!fff![=EBe] | %229
 [FAf][K:bass]"^accelerando sin al fine"[Q:1/4=78](3D,/C,/F,/(3A,/F,/B,/ (3A,/=E,/G,/(3A,/G,/C/[K:treble](3D/C/A/ | %230
[Q:1/4=84] (3G/=B,/C/(3D/C/F/(3A/F/_B/ (3A/=E/G/(3A/G/c/(3d/c/g/ | %231
[Q:1/4=92] (3f/ =B,/C/(3D/C/F/(3A/F/_B/ (3A/=E/G/(3A/G/c/(3d/c/a/ | %232
[Q:1/4=98] (3g/=B/c/(3d/c/f/(3a/f/_b/ (3a/=e/g/(3a/g/c'/(3d'/c'/g'/ | %233
!ff![Q:1/4=104] (3f'/!8va(!f''/=e''/(3_e''/d''/c''/(3b'/a'/g'/ (3f'/=e'/_e'/(3d'/c'/b/(3a/g/f/!8va)! | %234
 (3a'/g'/f'/(3e'/d'/c'/(3b/a/g/ (3f/e/d/(3c/B/A/(3G/F/D/ | %235
[Q:1/4=110] (3C/F/A/(3c/f/a/!8va(!(3c'/f'/a'/!fff! (3!>!d''/!ff!c''/a'/(3f'/b'/a'/(3g'/c'/g'/!8va)! | %236
 (3f'/c'/a/(3d'/c'/a/(3f/b/a/ (3f/c/g/(3f/c/A/(3d/c/A/ | %237
 (3F/B/A/(3F/C/G/(3F/C/A,/[Q:1/4=116] x x2 | x6 | x3[Q:1/4=72] [FAdf] z z | %240
 [dfgd'] z z[Q:1/4=60] [G,B,C=E] z z |[Q:1/4=36] !fermata![F,A,CF]6 |] %242
V:2
 x3 G/!pp!c/G/!pp!c/G/!pp!c/ | G/!pp![Bc]/G/!pp![Bc]/G/!pp![Bc]/ G/[=Ac]/F/[Ac]/=E/[Ac]/ | %2
 =E/!pp![G=B]/=D/[GB]/C/G/ E/[Gc]/E/[Fc]/E/[Gc]/ | =E/c/G/[Bc]/G/!pp![Bc]/ G/[=Ac]/F/[Ac]/E/[Ac]/ | %4
 =E/[G=B]/=D/[GB]/C/G/ E/[Gc]/E/[Fc]/E/[Gc]/ | =E/[G=B]/=D/[GB]/C/G/ E/[Gc]/E/[Fc]/E/[Gc]/ | %6
 =E/!pp![Fc]/E/[Gc]/E/[Fc-]/ [Ec]2 x | x6 | x6 | x6 | x6 | x6 | x6 | x6 | x6 | x6 | x6 | x6 | x6 | %19
 x6 | x6 | x6 | x6 | x6 | x6 | x6 | x6 | x6 | x6 | x6 | x6 | x6 | x6 | x6 | x6 | x3 x!pp! FD | %36
 _GF"^rit."D B, z2 | x6 | x6 | x6 | x6 | x6 | x6 | x6 | x3 AB_c | x6 | x6 | x6 | x6 | x3 _d3 | %50
 d c2 ed/!mp!A/d/c/ | c B2 Bc/d/B/c/ | E _G2- G!p!!>(! F2!>)! | F =G2- G!mp! _G2 | _G x x4 | x6 | %56
 x6 | z/ A/A/!pp!G/G/!p!F/ B/!p!!>(!A/G/!pp!F/=E/!>)!!pp!B/ | %58
 B/!pp!A/A/!pp!G/G/!p!F/ B/!p!!>(![Ac]/G/!pp![FA]/[=EG]/!>)!!pp![GB]/ | %59
 [GB]/!p!!pp![FA]/F_F [Ac]/!mp!B/B/!mp!A/A/!mf!!mp!G/ | %60
 G/!mp!F/F/G/F/G/ F/!p!E/E/"^accel."=D/!mp!D/_D/ | D/C/!mf!C/=F/E/[DGB]/ B/!mf!E/E/!mf!B/B/!mf!A/ | %62
 [d_f]/!mf![ce]/B/!mf![Ac]/[GB]/!mf![Bd]/ d/c/c/!f![Bd]/[Bd]/!f![Ac]/ | %63
 [df]/!f![ce]/B/!f![Ac]/[GB]/!f![Bd]/ [Ac]/ [Bd]/c/d/c/d/ | e/!f!f/e/!f!d/c/!f!B/ =A2 A | %65
 F/"^accel."E/D/_G/F/E/ D/F/B/c/B/c/ | d/!mf!c/B/!mf!A/_G/!mf!F/ G/!mf!d/c/G/E/=E/ | %67
 F/ z/ x3 B,=A,/B,/ | x3 x (B/.=A/)(A/.B/) | x6 | x[K:bass] x5 | x[K:treble] x5 | x6 | %73
 x4!8va(! x2 | x6 | x6!8va)! | x6 | x6 | x6 | x6 | x3 B,2!pp! ^G, | x6 | x6 | x6 | x6 | x6 | x6 | %87
 x3 [=DA]2 [EG] | [EG]2 x4 | x6 | %90
 B,[I:staff +1]=A,!p![I:staff -1]=D C!pp![I:staff +1]G,[I:staff -1]A, | x6 | x6 | x6 | x6 | %95
 x3 [=DA]2 [EG] | [EG]2 x4 | x6 | x6 | C3 B,3 | x6 | x6 | x6 | =D3 C3 | x6 | x6 | x6 | x6 | x6 | %109
 x6 | x6 | x6 | x6 | x6 | x6 | x6 |!8va(! x6 | x3!8va)! x3 | x6 | D6 | %120
 C/!pp!E/B,/E/!<(!C/E/ D/_F/E/_G/D/!<)!_F/ | D/!p!E/D/!p!_F/_G,/!pp!D/ =G,/!pp!D/G,/D/G,/D/ | %122
 C/!pp!E/B,/E/C/E/ A,/D/A,/_G/A,/_F/ | D/E/D/_F/_G,/D/ =G,/D/D/=G/G/d/ | x6 | x3 e!mf!__ed | x6 | %127
 x6 | x6 | x6 | x6 | x6 | x6 | =A/AAA/- A3 | x3 =e/=a/e/=f/e/^c/ | %135
 =A/=d/^c/A/=E/=F/ E/^C/=A,/=D/C/[I:staff +1]=E,/ | x6 | x6 | x6 | x6 | x6 | x6 | x6 | x6 | x6 | %145
 x6 | x6 | x6 | x6 | x6 | x6 | x6 | x6 | x6 | x6 | x6 | x6 | x6 | x6 | x6 | x6 | x6 | x6 | x6 | %164
 x6 | x7/3!8va(! x8/3!8va)! x | x6 | x6 | x6 | x6 | x6 | x6 | x6 | x6 | x6 | x6 | x6 | %177
[I:staff -1] (3_g/!pp!_G/c/(3B,/B/!pp!E/(3G/B,/=c/!pp! (3G/B/D/(3d/!pp!G/B/(3G/g/!p!B/ | %178
 (3d/_G/f/(3B/d/G/(3f/!p!A/c/ (3G/e/!p!A/(3c/E/c/!p!(3G/B/!p!!mf!C/ | F2 x4 | x3 c!mp!BA | %181
 e!mp!d x4 | x6 | x3 A!p!=G_G | x6 | x3 B!p!__BA | [de]2 x4 | x6 | x6 | x6 | x6 | x6 | %192
 [Ff][Bdb][Afa] [_Gca]2!mf! [Gcg] | x6 | x6 | x6 | x6 | x4 (3C/F/A/(3=B/c/f/ | a x x4 | %199
 x4 (3C/F/A/(3=B/c/f/ | a x x4 | x6 | x6 | x6 | x6 | x6 | x6 | x6 | x6 | x6 | x6 | x6 | x6 | x6 | %214
 (3A,/E/D/{/E}(3D/C/_G/(3G/F/ z/ (3D/F/D/(3F/D/F/(3B,/=E/C/ | x6 | %216
 (3A/e/!<(!d/{/e}(3d/!ff!c/_g/(3g/f/ z/!<)! (3d/f/d/(3f/d/f/(3B/=e/c/ | %217
 (3[=B=d]/!mf!!<(![ce]/[^c=e]/(3[df]/[^d^f]/!f![eg]/(3[=fa]/[eg]/!<)![_b_d']/ (3[=A=c]/!mf![_B_d]/[=B=d]/(3[c_e]/[^c=e]/!f![df]/(3[_e_g]/[df]/[_a_c']/ | %218
 x6 | z (3c'/x/b/(3a/x/g/ cA(3G/x/B/ | (3B/x/A/(3c/x/B/(3A/x/G/ A2 x | x6 | %222
[K:bass] F,2!mp! =E,/>F,/ [G,B,]!mp![F,A,] x | x6 | x6 |[K:treble] x4!8va(! x2 | %226
 x!8va)! (3E/F/_G/ x4 | x4!8va(! x2 | x!8va)! (3e/f/_g/ x4 | x[K:bass] x4[K:treble] x | x6 | x6 | %232
 x6 | x/3!8va(! x17/3!8va)! | x6 | x2!8va(! x4!8va)! | x6 | x6 | x6 | x6 | x6 | x6 |] %242
V:3
!ped! z2 z =EE=D!ped-up! |!p!!ped! =DC z!ped-up!!ped! F,,/!pp!C/=A,/!pp!C/!ped-up!!p!=D,/!pp!C/ | %2
!p!!ped! G,,/G,/!p![F,=B,]/!pp!G,/!ped-up!!p!!ped!=E,/!pp!G,/ C,/!pp!G,/C/!ped-up!=A,/G,/ z/ | %3
!ped! C,,/!pp!G,/!p!C/!pp!=D/=E!ped-up!!mf!!ped! F,,/!pp!C/=A,/!pp!C/!ped-up!!p!=D,/!pp!C/ | %4
!ped! G,,/!pp!G,/!p![F,=B,]/!pp!G,/!ped-up!!p!!ped!=E,/!pp!G,/!pp! C,/!pp!"^dimin. e riten."G,/C/!ped-up!=A,/G,/ z/ | %5
!p!!ped! G,,/!pp!G,/!p![F,=B,]/!pp!G,/!ped-up!!p!!ped!=E,/!pp!G,/ C,/!pp!G,/C/=A,/!ped-up!G,/ z/ | %6
 x3/2 C,3/2- [C,G,]2 z | z2 z!p!!ped! F,,[K:treble]!pp! [CFA][A,CF]!ped-up! | %8
[K:bass]!p!!ped! F,[K:treble]!pp! [D=EG][B,DE]!ped-up![K:bass]!p!!ped! F,,[K:treble]!pp! [CFA][A,CF]!ped-up! | %9
[K:bass]!p!!ped! F,[K:treble]!pp! [D=EG][B,DE]!ped-up![K:bass]!p!!ped! F,,[K:treble]!pp! [CFA][A,CF]!ped-up! | %10
[K:bass]!ped! E,!p![CA]E,!ped-up!!mp!!ped! E,,!pp![DEG][G,DE]!ped-up! | %11
!ped! A,,[A,CE]!p![E,A,C] [A,CF]!ped-up!!pp![A,CE][E,A,C] | %12
!p!!ped! A,,,[K:treble]!pp! [EAc][CEA]!ped-up![K:bass]!p!!ped! A,[K:treble]!pp! [_FGB][DFG]!ped-up! | %13
[K:bass]!p!!ped! A,,[K:treble]!pp! [EAc][CEA]!ped-up![K:bass]!p!!ped! A,[K:treble]!pp! [_FGB][B,DG]!ped-up! | %14
[K:bass]!ped! A,,[K:treble] [EAc][CEA]!ped-up![K:bass]!ped! E,,[K:treble] [E_GB][B,EG]!ped-up! | %15
[K:bass]!ped! F,,[K:treble] [E=A][=A,EF]!ped-up![K:bass]!ped! B,, [B,DF][F,B,D]!ped-up! | %16
!p!!ped! _G,, [B,D_G][_G,B,D]!ped-up!!ped! D,, [A,DF][F,A,D]!ped-up! | %17
!ped! E,, [B,C_G]!pp![_G,B,E]!ped-up!!p!!ped! F,,[K:treble]!pp! [CF=A][=A,CF]!ped-up! | %18
[K:bass]!p!!ped! F,[K:treble]!pp! [D=EG][B,DE]!ped-up![K:bass]!p!!ped! F,,[K:treble]!pp! [CF=A][=A,CF]!ped-up! | %19
[K:bass]!p!!ped! F,[K:treble]!pp! [D=EG][B,DE]!ped-up![K:bass]!p!!ped! F,,[K:treble]!pp! [C_E_G][_G,B,E]!ped-up! | %20
[K:bass]!p!!ped! F,[K:treble] [E_GB][CEG]!ped-up![K:bass]!ped! F,,[K:treble] [E=A][=A,EF]!ped-up! | %21
[K:bass]!ped! B,,!pp! [B,DF][F,B,D]!ped-up!!ped! C, [B,C=E][G,B,C]!ped-up! | %22
!p!!ped! F,,!pp! [CFA][A,CF]!ped-up!!p!!ped! F,!pp! [D=EG][B,DE]!ped-up! | %23
!p!!ped! F,,!pp! [CFA][A,CF]!ped-up!!p!!ped! F,!pp! [D=EG][B,DE]!ped-up! | %24
!p!!ped! F,[A,CA]!ped-up!_F,!ped! E,[CA]E,!ped-up! | %25
!ped! E,, [DG][E,G,D]!ped-up!!p!!ped! A,,!pp! [A,CE][E,A,C]!ped-up! | %26
!ped! A,, [A,C_F][_F,A,C]!ped-up!!mp!!ped! A,,,[K:treble] [EAc][CEA]!ped-up! | %27
[K:bass]!ped! A,[K:treble] [_FGB][DFG]!ped-up![K:bass]!ped! A,,[K:treble] [EAc][CEA]!ped-up! | %28
[K:bass]!ped! A,[K:treble] [_FGB][B,D=G][K:bass]!ped-up!!ped! A,,[K:treble] [EAc][CEA]!ped-up! | %29
[K:bass]!ped! E,,[K:treble] [E_GB][B,EG]!ped-up![K:bass]!mp!!ped! F,,[K:treble] [E=A][=A,EF]!ped-up! | %30
[K:bass]!p!!ped! B,,!pp! [B,DF][F,B,D]!ped-up!!mp!!ped! _G,,!p! [B,D_G][_G,B,D]!ped-up! | %31
!ped! D,, [A,DF][F,A,D]!ped-up!!mp!!ped! E,,!p! [B,C_G][_G,B,E]!ped-up! | %32
!p!!ped! F,,[K:treble]!pp! [CF=A][=A,CF]!ped-up![K:bass]!p!!ped! F,[K:treble]!pp! [D=EG][B,DE]!ped-up! | %33
[K:bass]!p!!ped! F,,[K:treble]!pp! [CF=A][=A,CF]!ped-up![K:bass]!p!!ped! F,[K:treble]!pp! [D=EG][B,DE]!ped-up! | %34
[K:bass]!p!!ped! F,,[K:treble]!pp! [C_E_G][_G,B,E]!ped-up![K:bass]!p!!ped! F,[K:treble] [EGB][CEG]!ped-up! | %35
[K:bass]!ped! F,,[K:treble]!pp! [E=A][=A,EF]!ped-up![K:bass]!p!!ped! B,,!pp! [B,D][F,B,]!ped-up! | %36
!ped! [B,D][B,D][F,B,]!ped-up! .[D,F,] [B,,,B,,][_A,,,_A,,] | %37
!ped! [_G,,,_G,,]!pp! [D,,D,][G,,_G,] [B,,B,][E,E]!ped-up![B,,B,] | %38
!ped! [D,D][E,E]!ped-up![B,,B,]!ped! [D,D][A,,A,]!ped-up![B,,B,] | %39
!ped! [_G,,_G,][E,,E,]!ped-up![B,,,B,,]!ped! [D,,D,][A,,,A,,]!ped-up![B,,,B,,] | %40
!ped! [_G,,,_G,,] [E,E][B,,B,]!ped-up!!ped! [D,D][A,,A,]!ped-up![B,,B,] | %41
!pp!!ped! [_C,_C] [_C,,C,][_F,,_F,] [A,,A,][D,D][A,,A,]!ped-up! | %42
!ped! [_C,_C][D,D]!ped-up![A,,A,]!ped! [C,C][_G,,_G,]!ped-up![A,,A,] | %43
!ped! [_F,,_F,] [D,,D,]!ped-up![A,,,A,,]!ped! [_C,,_C,][_G,,,_G,,]!ped-up![A,,,A,,] | %44
!ped! [_F,,,_F,,] [D,D][A,,A,]!ped-up! [_C,_C][B,,B,][A,,A,] | %45
!p!!ped! [B,,,B,,]!pp! [A,=D][DA] z [A,DA][=F,A,D]!ped-up! | %46
!p!!ped! _C, [A,EA] [F,A,E]!ped-up!!mf!!ped! F,,!p! [A,EA][F,A,E]!ped-up! | %47
!ped! B,,!pp! [A,=D][DA]!ped-up!!p!!ped! =B,, [A,EA][F,A,E]!ped-up! | %48
!ped! =C, [=A,E=A][F,A,E]!ped-up!!mf!!ped! F,,!p! [A,EA][F,A,E]!ped-up! | %49
!ped! B,,"^cresc." [B,=D_A][F,B,D]!ped!!ped-up! E,,!p! [B,_DG]!ped-up![E,B,D] | %50
!ped! A,, [A,E_G][E,A,C]!ped-up!!mp!!ped! D,,!p! [A,DF][F,A,D]!ped-up! | %51
!ped! _G,, [B,DF]!pp![_G,B,D]!ped-up!!p!!ped! C,,[G,E]!ped-up! z | %52
!p!!ped! F,, E/!<(!F,/!ped-up!E/D/!<)! C2 B, | B, _F/!p!=F,/_F/E/ D2 C | C z z z2 z | %55
 z2 z!p! F,,[K:treble]!pp! [E=A][=A,EF] | %56
[K:bass]!p! B,,!pp! [B,DF][F,B,D]!p! C,!pp! [B,C=E][=E,B,C] | %57
!p!!ped!!<(! F,,!pp! [F,A,C]!<)![A,CA]!ped-up!!ped! !arpeggio![F,,D,G,] [F,B,D][B,DG]!ped-up! | %58
!ped! [F,,F,] [F,A,C][A,CA]!ped-up!!ped! !arpeggio![F,,D,G,] [F,B,D][B,DG]!ped-up! | %59
!ped! x2!ped-up!!mp! x!ped! x/ D/D/C/C/!ped-up!B,/ |!ped! x3!ped-up! D/C/C/=B,/B,/A,/ | %61
 A, x!f! x!ped! [A,,,A,,]!mf![E,A,C][E,A,CE]!ped-up! | %62
!ped! !arpeggio![G,,_F,B,] [F,G,B,D][G,B,D_F]!ped-up!!f!"^cresc."!ped! [A,,,A,,]!mf! [E,A,C]!f![E,A,CE]!ped-up! | %63
!ff!!ped! !arpeggio![A,,_F,B,] [F,G,B,D][G,B,D_F]!ped-up!!ped! [A,,,A,,] [E,A,CE][A,CA]!ped-up! | %64
!ped! !arpeggio![E,,B,,E,] [E,_G,B,C][B,CE_G]!ped-up!!mf!!ped! F,,/ F,3/2 !arpeggio!F,!ped-up! | %65
 [B,D]/!p! _G,/F,/!mp![E,,E,]/[D,,D,]/[C,,C,]/"^più"!ped! [B,,,B,,]!mf! [F,B,D][B,DF]!ped-up! | %66
!ped! !arpeggio![D,,A,,D,] [F,A,D][A,DA]!ped-up!!ped! [E,,E,][_G,B,E]!ped-up!!f! [_G,,G,] | %67
!ped! [F,,F,]/ [_G,_G]/[F,F]/!ped-up![=E,=E]/[_E,_E]/[C,C]/!ped! [D,D]/[B,,B,]/[=G,,=G,]/!ped-up!!ped![_G,,_G,]/[D,,D,]/[_G,,,_G,,]/!ped-up! | %68
!ped! [F,,,F,,]/ [_G,_G]/!ff![F,F]/!ped-up![=E,=E]/[_E,_E]/[C,C]/!ped! [D,D]/[B,,B,]/[=G,,=G,]/!ped-up!!ped![_G,,_G,]/[D,,D,]/[_G,,,_G,,]/!ped-up! | %69
 [=E,,,=E,,]/[F,,,F,,]/!ped! [_G,_G]/[F,F]/[_E,_E]/!ped-up![D,D]/!ped! [C,C]/[B,,B,]/[=A,,=A,]/!ped-up!!ped![_G,,G,]/[_E,,E,]/!fff![C,,C,]/ | %70
!fff! [=A,,,=A,,]!ped-up!!mf! [A,,,A,,][B,,,B,,] [B,,,B,,]!ped![_C,,_C,][E,,,E,,]!ped-up! | %71
!fff!!ped! [_G,,,_G,,] z/!ped-up!!p! [_G,__B,_C]/C/[B,CE]/!mf!!ped! z/!p! [C__E]/ z/!ped-up! [A,CE]/D/[CDF]/ | %72
!mf!!ped! z/!p! [D_F]/ z/!ped-up! [B,DF]/E/[DEG]/!mf!!ped! z/!p! [E_G]/ z/!ped-up! [=CEG]/=F/[EG=A]/ | %73
!mf!!ped! z/[K:treble]!p! [=Ae]/ z/ [cef]/f/[ef=a]/ z/ [_ac']/ z/ =a/c/a/ | %74
!pp! F/=a/!p!c/a/!mp!F/a/ c/a/!p!F/a/!pp!c/a/ | _e z z4!ped-up! | z6 | z2 z z[K:bass] C/=D/F/E/ | %78
 =D/B,/=A,/F,/G,/B,/ A,/G,/E,/C,/E, | E,/=D,/!p!C,/B,,/F,,!ped! [B,,F,B,]2 [F,,F,]!ped-up! | %80
 [B,,F,B,]2 [F,,F,] [B,,F,]2 [=E,,=E,] | [=A,,=E,]2 [=E,,E,] [A,,E,A,]2 =D,, | %82
 [G,,=D,G,]2 C,, F,,2 F,, |!ped! [B,,,B,,] z [B,,F,B,]!ped-up!!ped! [=A,,=D,-=A,]3!ped-up! | %84
 [G,,D,B,]2 C, C,2 [F,,F,] |!ped! [B,,,B,,] z [B,,F,B,] [B,,F,B,]2!ped-up! [B,^C=E]- | %86
 [B,CE][B,=DF][B,=CG] [B,DF]2!pp!!ped! [B,,,B,,] | [B,,,B,,] z [B,,B,] [B,,B,]2!ped-up! [E,B,] | %88
 [E,B,]2!ped! [C,C] [C,C]2!<(! [C,G,] | [C,G,]2!ped-up! [G,,G,]!p! [G,,G,]2!<)! C, | %90
!>(! [F,,C,]6!>)! |!pp! G, F,2 [B,,F,]2 [B,,^F,] |"^cresc." [B,,^F,]2 [B,,G,] [C,G,]2!mp! [C,=A,] | %93
 [=D,=A,]2 [D,A,C] [E,G,B,]2 [=E,B,^C]- | %94
 [E,B,C][F,B,=D][G,B,^C]!ped! [_A,B,D]2!pp!!>(! [B,,,B,,] | %95
 [B,,,B,,] z [B,,F,B,]!ped-up! [B,,F,B,]2!>)! [E,B,] |!p! [E,B,]2!ped! [E,B,] [E,B,]3- | %97
 [E,B,]2!ped-up! E, [G,,G,]2 C, |!>(! F,,2!p!!ped! B,,,!>)!!pp! [B,,F,]2!ped-up!!p! =D,- | %99
 D,/E,/!ped! =D,2!ped-up! D,/E,/!ped! D,2!ped-up! |!ped! =A,,C z z2 z!ped-up! | %101
!ped! =D,, =D,=A,C^F!ped-up! z |!ped! G,, =D,=D/!ped-up!^F/ G/ .^F,/"^cresc."F,/=F,/!mp!F,/=E,/- | %103
 E,/F,/ =E,2 E,/F,/ E,2 |!ped! =B,,=D z4!ped-up! |!ped! =E,, =E,=B,=D^G!ped-up! z | %106
!ped! =A,,, =A,,/=E,/=A,/=E/!ped-up! =A E_E | =D6 |!ped! =D,, =D3!ped-up! x2 | C6 | %110
!ped! C,, C3!ped-up! x2 |!ped! A,,(3TA,/B,/A,/C,!ped-up! D,(3TA,/B,/A,/{/=G,A,}D | %112
!ped! E,, E,[G,E]!ped-up!!ped! A,, E,[A,E]/!ped-up! z/ | %113
!ped! A,,[K:treble](3A/B/A/C!ped-up!!ped! D(3A/B/A/{/=GA}d!ped-up! | %114
[K:bass]!ped! E,[K:treble] E[Ge]!ped-up!!ped! A, E[Ae]!ped-up! | %115
[K:bass]!ped! E,[K:treble] E[Ge]!ped-up!!ped! A, E[Ae]/ z/!ped-up! | %116
[K:bass]!ped! E,, E,[G,DE][K:treble]"^dimin." [B,DG][EGd][Gde] | [dg] z z4 | %118
[K:bass] z D2- D2!p! E,-!ped-up! |!ped! E,=E,F,!ped-up! ^F,G,_E, |!p!!p! A,E,_G, _F,C,D, | %121
 G,,A,,=A,, B,,=D,,/E,,/D,,/E,,/ | %122
!mp!"^cresc." [A,,,A,,] [E,,E,][_G,,_G,] [_F,,_F,][C,,C,][D,,D,] | %123
 [_G,,,_G,,][A,,,A,,][=A,,,=A,,] [_B,,,_B,,]!ped![E,,,E,,][E,,E,]!ped-up! | %124
!mp!!ped![I:staff -1] [de]/=c/[ce]/B/[ce]/A/!ped-up!!ped! [Be]/A/[Be]/F/[GB]/E/!ped-up! | %125
!ped! [Be]/=A/[ce]/_G/[Be]/G/!ped-up!!ped! B/G/B/G/B/G/!ped-up! | %126
!p!!ped! [__Bc]/A/[Ac]/_G/[Ac]/E/!ped-up!!ped! [Ac]/=G/[Ac]/=E/F/C/!ped-up! | %127
!ped! [=E=B]/!pp!^D/"^dim."[^FB]/=B,/[EB]/B,/!ped-up! B/E/B/^D/!ppp!B/!pp!=D/ | %128
!ped! ^C/=G/=E/[G=A]/!ped-up!E/[GA]/!ped! E/[^FA]/=D/[FA]/^C/!ped-up![FA]/ | %129
!ped! ^C/[=E^G]/=B,/[EG]/!ped-up!=A,/E/!ped! C/[E=A]/!ped-up!C/[=DA]/C/[EA]/ | %130
!ped! ^C/[G=A]/=E/[GA]/!ped-up!!p!E/[GA]/!ped! E/[^FA]/=D/[FA]/!ped-up!!ped!^C/[FA]/!ped-up! | %131
!ped! ^C/^G/=B,/!ped-up![CG]/!ped!=A,/[C^F]/!ped-up!!ped! ^G,/[^EG]/!pp!C/[EG]/!ped-up!C/[EG]/ | %132
!ped! ^C/[=E^G]/=B,/!ped-up![EG]/=A,/E/!ped! C/[E=A]/C/!ped-up![=DA]/C/[EG]/ | %133
!ped! ^C/=D/C/!ped-up!!ped!=E/C/D/!ped-up!!pp!!ped! C3- | %134
"^dolciss." C/=E/=A/[I:staff +1][K:treble][I:staff -1]^c/=e/=a/[I:staff +1] x3!ped-up! | %135
[K:bass]!ped! x6!ped-up!!ped!!ped-up!!ped!!ped-up!!ped!!ped-up! | %136
!ped! =A,,/=D/^C/!ped-up!!ped!=E,/A,,/D/!ped-up!!ped! C3/2!ped-up! z z/ | z2 z!pp! =A,B,=D | %138
 ^CG,B, =A,B,=D | x2[I:staff -1] G C=D!p!!ped!F | %140
!>(! [B,F]=D!ped-up!!pp![B,=E]!>)! =A,[I:staff +1] z z |[I:staff -1] C_DF =E[I:staff +1]B,D | %142
 x3 x2[I:staff -1] B | EF!ped!A!>(! [DA]F!ped-up!!pp![DG]!>)! | %144
 C[I:staff +1] x2[I:staff -1] E!p!_FA |!pp! GA[I:staff +1][K:treble][I:staff -1]_c B__BA | %146
[I:staff +1] x2[I:staff -1] d _G_cB | %147
!ped! =A3!ped-up![I:staff +1][K:bass]!ped![I:staff -1] B[I:staff +1] x2!ped-up! | %148
!p!!ped! _G,,!pp! [D,_G,B,][G,B,D]!ped-up!!p!!ped! D,,[F,A,D][A,DF]!ped-up! | %149
!p!!ped! E,,!pp! [E,B,C]!ped-up![B,C_G]!p!!ped! F,,[K:treble]!pp! [CF=A]!ped-up![=A,CF] | %150
[K:bass]!p!!ped! F,[K:treble]!pp! [D=EG]!ped-up![B,DE][K:bass]!p!!ped! F,,[K:treble]!pp! [CF=A]!ped-up![=A,CF] | %151
[K:bass]!p!!ped! F,[K:treble][D=EG]!ped-up!!p![B,DE][K:bass]!ped! F,,[K:treble] [C_E_G]!ped-up![_G,B,E] | %152
[K:bass]!ped! F,[K:treble]!mp! [E_GB]!ped-up![CEG]!ped-up![K:bass]!ped! F,,[K:treble]!p! [E=A]!ped-up![=A,EF] | %153
[K:bass]!ped! B,,[B,DF]!pp![F,B,D]!ped-up!!p!!ped! C,!pp![B,C=E]!ped-up![G,B,C] | %154
!mp!!ped! F,,/!p!C,/A,/F,/C/A/!ped!!mp! F,,/!p!D,/G,/=E,/!ped-up!B,/G/!ped-up! | %155
!mp!!ped! F,,/!p!C,/A,/F,/C/A/!ped-up!!mp!!ped-up!!ped! F,,/!p!D,/G,/=E,/B,/G/ | %156
!ped! F,,/C,/A,/_F,,/C,/A,/!mp!!ped-up!!ped! E,,/!p!C,/A,/E,/C/A/ |!ped-up! %157
!mp!!ped! E,,/!p!D,/G,/E,/D/G/!ped-up!!ped! A,,/E,/C/E,/C/A/!ped-up! | %158
!ped! A,,/_F,/C/_F,/C/A/!p!!ped-up!!ped! A,,,/!pp!E,/C/E,/C/A/!ped-up! | %159
!ped! A,,/_F,/D/[K:treble]B,/=G/d/[K:bass]!ped-up!!ped! A,,/E,/C/[K:treble]A,/E/c/!ped-up! | %160
[K:bass]!ped! A,,/_F,/D/[K:treble]B,/=G/d/[K:bass]!ped-up!!ped! A,,/E,/C/[K:treble]A,/E/c/!ped-up! | %161
[K:bass]!ped! E,,/B,,/_G,/E,/B,/_G/!ped-up!!ped! F,,/C,/=A,/F,/E/=A/!ped-up! | %162
!ped! B,,,/F,,/D,/B,,/F,/D/!ped-up!!ped! _G,,/D,/B,/_G,/D/B/!ped-up! | %163
!ped! D,,/A,,/F,/D,/A,/F/!ped-up!!ped! E,,/_C,/_G,/=E,,/D,/=G,/!ped-up! | %164
!mf!!ped! F,,/!p!=C,/=A,/F,/C/=A/!mf!!ped-up!!ped! F,,/!p!D,/"^poco a poco accel."B,/=E,/D/G/!ped-up! | %165
!mf!!ped! F,,/!p!C,/=A,/!p!F,/C/!mp!=A/[K:treble]!mf!!ped-up!!ped! F,/D/B/!p!=E/d/g/!ped-up! | %166
!ped! [Fc] z z z[K:bass]!p!!ped-up!!ped! (3C/D/=D/!ped-up!!ped!(3E/=E/_D/!ped-up! | %167
!mp!!p!!ped! [CF][F,_E] z z!ped-up!!ped! (3C,/D,/=D,/!ped-up!!ped!(3E,/=E,/_D,/!ped-up! | %168
 [F,,^^C,F,][D,=E,][C,F,][D,E,][C,F,][D,E,] | %169
!ped! [C,_E,]!ped! z!ped-up!!ped! z!ped! z2!ped-up!!ped!!ped-up! z!ped-up! | %170
 (3G,/_G,/F,/(3_F,/!p!E,/=D,/(3_D,/C,/_C,/ (3B,,/=A,,/_A,,/!p!(3=G,,/_G,,/=F,,/(3_F,,/E,,/__E,,/ | %171
!p!!ped! x2!ped-up!!ped!!ped-up!!ped![I:staff -1] [FA]!ped-up!!ped! [FA]3 | %172
!ped! F2!ped-up!!ped! F!ped-up!!ped! [C_G]2!ped-up![I:staff +1] x | %173
!pp!!ped![I:staff -1] _G!ped-up!!ped!F!ped-up!!ped![EA]!ped-up!!ped! [DA]2!ped-up!!ped! [_cd] | %174
 [_cd][cd][cd] [cd]3 |!ped! [F_c]2 [Fc] [Fc]3-!ped-up! | %176
!pp!!ped! [Fc]3!ped-up!!ped! [_G_c]2 [GB]!ped-up! | %177
!ped![I:staff +1] E,,/B,,/E,/_G,/E,/B,,/ E,,/!ped!B,,/!ped-up!E,/"^cresc."B,/E,/B,,/!ped-up! | %178
!ped! A,,/E,/_G,/D/!p!G,/E,/!ped-up!!ped! A,,/E,/G,/C/G,/A,,/!ped-up! | %179
!mp!!ped! (3D,,/A,,/B,,/(3C,/D,/E,/!ped-up!!ped!(3F,/_G,/!mf!A,/ (3B,/A,/B,/!ped-up!!ped!(3C/D/E/F!ped-up! | %180
!mp!!ped! (3D,,/A,,/B,,/(3C,/D,/E,/!ped-up!!ped!(3F,/_G,/!mf!A,/ (3B,/A,/C/!ped-up!!ped!(3D/E/F/_G!ped-up! | %181
!mp!!ped! (3D,,/A,,/B,,/(3C,/D,/E,/!ped-up!!ped!(3F,/!mf!_G,/A,/ (3B,/A,/B,/!ped-up!!ped!(3C/D/E/_F!ped-up! | %182
!mp!!ped! (3C,,/C,/E,/(3A,/E,/A,/[K:treble](3C/E/A/ (3E/e/A/!p!(3E/C/A,/!ped-up![K:bass](3E,/C,/A,,/ | %183
!ped! _C,,(3_C,/D,/F,/(3D/F,/D,/!ped-up!!ped! (3B,,/D,/_G,/(3E/G,/D,/(3D/G,/D,/!ped-up! | %184
!ped! (3A,,/D,/F,/!mp!(3=C/F,/D,/(3D/!ped-up!F,/D,/!ped! (3_G,,/D,/_G,/!p!(3E/G,/D,/(3_F/G,/D,/!ped-up! | %185
!ped! (3=G,,/D,/E,/(3=A,/E,/D,/(3B,/!ped-up!E,/D,/!ped! (3_A,,/E,/_A,/(3F/A,/E,/!ped-up!(3E/A,/E,/ | %186
!ped! (3B,,/!mp!E,/G,/(3D/G,/E,/(3E/!ped-up!G,/E,/!ped! (3A,,/D,/A,/(3E/!p!A,/E,/!ped-up!(3A/E/A,/ | %187
!ped! (3B,,/D,/_G,/(3B,/G,/D,/(3D/!pp!G,/D,/!ped-up!!ped! B,,,/_G,,/(3D,/G,,/D,/!ped-up!(3G,,/D,/G,,/ | %188
!p!!ped! B,,,/_G,,/(3D,/G,,/D,/(3G,,/D,/G,,/!mf!!ped-up!!ped! B,,,/!p!G,,/(3D,/G,,/D,/(3G,,/D,/G,,/!ped-up! | %189
!mp!!ped! B,,,/F,,/(3D,/F,,/"^cresc."D,/(3F,,/D,/F,,/!mf!!ped-up!!ped! C,,/!mp!F,,/(3C,/D,/=D,/(3E,/=E,/F,/!ped-up! | %190
!f!!ped! D,,/!mp!B,,/(3C,/D,/=D,/(3E,/=E,/F,/!f!!ped-up!!ped! E,,/!mp!C,/(3D,/_E,/=E,/(3F,/^F,/G,/!ped-up! | %191
!ped! A,,/D,/(3E,/=E,/F,/(3^F,/G,/A,/!ff!!ped-up!!ped! G,,/!mp!=E,/(3=F,/^F,/G,/!mf!(3A,/=A,/B,/!ped-up! | %192
!ped! (3_A,,/F,/_A,/(3D/A,/F/(3D/A,/F,/!ped-up!!ped! (3A,,,/A,,/E,/(3C/A,/_G/(3C/A,/E,/!ped-up! | %193
!ped! D,,/>!mp!A,,/(3D,/D,/A,/[K:treble](3D/D/A/ (3d/A/D/[K:bass](3D/A,/D,/(3D,/A,,/D,,/!ped-up! | %194
!f!!ped! D,,/>=A,,/!mf!(3D,/D,/=A,/[K:treble]!f!(3D/D/=A/ (3d/A/D/[K:bass](3D/A,/D,/!mp!(3D,/A,,/!ped-up!D,,/ | %195
!ped! D,,/>B,,/(3D,/D,/B,/[K:treble](3D/D/B/ (3d/B/D/[K:bass](3D/B,/B,,/(3D,/B,,/D,,/!ped-up! | %196
!ped!!<(! D,,/>=G,,/(3D,/D,/G,/[K:treble](3D/!<)!D/G/ (3d/G/D/[K:bass](3D/G,/D,/(3D,/G,,/D,,/!ped-up! | %197
!fff! [C,,C,]!ff!!ped! (3z/ C,/F,/(3A,/=B,/C/ x3!ped-up! | %198
 z!ped-up!!ped! [D,A,D] [_C,F,A,_C] [B,,D,_G,B,]!ped-up!!ped! [=C,=G,=C] [B,,=E,G,B,] | %199
 [A,,F,A,]!ff!!ped! (3z/ C,/F,/(3A,/=B,/C/ x3!ped-up! | %200
!fff! z!<(! [D,A,D]!ped-up!!ped! [_C,,_C,] [B,,,B,,]!ped-up!!ped! [=C,,=C,] [B,,,B,,] | %201
 [A,,,A,,]!ped! [G,,,G,,] [^F,,,^F,,] [=E,,,=E,,]!ped-up!!ped! [=D,,,^D,,] [=D,,=D,]!ped-up! | %202
 [^C,,^C,]!ped! [=B,,,=B,,] [^A,,,^A,,] [=A,,,=A,,]!ped-up!!ped! [_A,,,_A,,] [_B,,,_B,,]!ped-up!!<)! | %203
!fff!!ped! [=C,,=C,] z z C,D,F,!ped-up! | %204
!fff! [C,,C,][G,,,G,,]!ped-up!!ped![C,,,C,,] z !fermata!z2 | [C,G,=E]6 | [C,G,=D]6 | [C,G,C]6 | %208
 [C,G,_B,]6 |!ped! [C,,C,]6-!ped-up! | [C,,C,]6- | [C,,C,]6- | [C,,C,]2 z z2 z | %213
!fff!!ped! F,,,!mp!!ped-up!!ped!(3D,/D,,/G,,/!ped-up!!ped!(3C,,/=E,/C,/!ped-up!!ped! (3A,/C,/F,,/!ped-up!!ped!D,/D,,/!ped-up!!ped!(3C,,/E,/C,/ | %214
!ped! (3F,,/F,/A,,/!ped-up!!ped!(3E,,/!ff!_G,/A,,/!ped-up!!ped!(3D,,/F,/A,,/!f!!<(! (3=G,,/A,,/=A,,/!ff!(3B,,/=B,,/C,/!<)!!>(!(3D,/!f!C,/!>)! z/!ped-up! | %215
!ff!!ped! F,,!ped-up!!ped!(3D/D,/G,/!ped-up!!ped!(3C,/=E/C/!ped-up!!ped! (3A/C/F,/D/!ped-up!D,/!ped!(3C,/E/C/ | %216
!mf!!ped! (3F,/F/F,/!ped-up!!ped!(3E,/_G/A,/!ped-up!!ped!(3D,/F/A,/!f!!<(! (3=G,/A,/=A,/!ff!(3B,/=B,/!<)!C/!>(!(3D/!f!C/ z/!ped-up!!>)! | %217
!fff!!ped! (3F,/A/=D/(3=B,/A/D/!ped-up!!ped!(3=E,/G/_D/!ped-up!!ped! (3_E,/_G/C/(3=A,/G/C/!ped-up!!ped!(3=D,/F/_C/ | %218
!ped! (3_D,/=E/B,/(3G,/E/B,/!ped-up!!ped!(3C,/E/B,/!ped-up!!ped! (3=B,,/E/=B,/(3G,/E/_B,/!ped-up!!ped!(3_B,,/E/C/!ped-up! | %219
!ped!!>(! (3A,,/F/C/(3A,/!f!F/C/!ped-up!!ped!(3B,,/F/!mf!D/!ped-up!!ped! (3C,/F/C/(3A,/F/!>)!C/!ped-up!!ped!!<(!(3C,/=E/!<)!C/!ped-up! | %220
!ped! (3D,/!mf!D/A,/!ped-up!!ped!(3F,/D/!mp!A,/!ff!!ped-up!!ped!(3B,,/!mp!D/G,/!ped-up!!ped! (3C,/C/D/(3C/!mf!=B,/C/!ped-up!!ped!(3G,/C/!f!=A,/!ped-up! | %221
!ped! (3B,/F,/G,/!ped-up!!ped!(3_A,/E,/F,/!ped-up!!ped!(3G,/=D,/=E,/!ped-up!!ped! (3F,/C,/_D,/!ped-up!!ped!(3B,,/!mf!=A,,/B,,/!ped-up!!ped!(3C,/=B,,/C,/!ped-up! | %222
!mp!!ped! (3=A,,/^G,,/A,,/!ped-up!!ped!(3B,,/C,/_A,,/!ped-up!!ped!(3=G,,/A,,/F,,/!ped-up!!ped! (3=E,,/!mf!F,,/G,,/!ped-up!!ped!(3F,,/G,,/_E,,/!ped-up!!ped!(3D,,/E,,/D,,/!ped-up! | %223
!ped!!<(! (3B,,,/C,,/D,,/!ped-up!!ped!(3C,,/!f!F,,/E,,/!ped-up!!ped!(3D,,/E,,/F,,/!ped-up!!ped! (3=E,,/F,,/G,,/!<)!!ped-up!!ped!(3F,,/!ff!B,,/A,,/!ped-up!!ped!(3G,,/A,,/B,,/!ped-up! | %224
!ped! (3A,,/B,,/C,/!ped-up!!ped!(3=A,,/!f!^G,,/A,,/!ped-up!!ped!(3B,,/C,/D,/!ped-up!!ped! (3C,/!mf!_A,,/F,,/!ped-up!!ped!(3D,,/C,,/D,,/!ped-up!!ped!(3C,,/A,,/=G,,/!ped-up! | %225
!ped! [F,,C,]/>E,/!ped-up!!ped! _G,/>=A,/[K:treble]!ped-up!!ped! C/>!f!E/!ped-up!!ped! _G/>=A/!ped-up!!ped! c/>e/!ped-up!!ped! _g/>=a/!ped-up! | %226
 c'[K:bass]!f!!<(!(3[_G,,_G,]/[F,,F,]/[E,,E,]/(3[D,,D,]/[C,,C,]/[B,,,B,,]/ (3[A,,,A,,]/[=G,,,=G,,]/[G,,,G,,]/(3[G,,,G,,]/[C,,,C,,]/[C,,,C,,]/!fff!(3[D,,,D,,]/[C,,,C,,]/!<)![C,,,C,,]/ | %227
!fff!!ped! (3[F,,,F,,]/ z/ E,/!ped-up!!ped! _G,/>=A,/[K:treble]!ped-up!!ped! C/>E/!ped-up!!ped! _G/>=A/!ped-up!!ped! c/>e/!ped-up!!ped! _g/>=a/!ped-up! | %228
 c'[K:bass](3[_G,_G]/[F,F]/[E,E]/(3[D,D]/[C,C]/[B,,B,]/ (3[A,,A,]/[=G,,=G,]/[G,,G,]/(3[G,,G,]/[C,,C,]/[C,,C,]/(3[D,,D,]/[C,,C,]/[C,,C,]/ | %229
!fff!!ped! (3F,,,/!p!C,,/A,,/ z!ped-up! z"^cresc."!ped! C,,/B,,/=E,/!ped-up!!ped!=E,,/C,/B,/!ped-up! | %230
!ped! F,,/C,/A,/!ped-up!!ped!A,,/F,/C/!ped-up!!ped! C,/B,/=E/!ped-up!!ped!=E,/C/B/!ped-up! | %231
!ped! F,,/C,/A,/!ped-up!!ped!A,,/F,/C/!ped-up!!ped! C,/B,/=E/!ped-up!!ped!=E,/C/B/!ped-up! | %232
[K:treble]!ped! F,/C/A/!ped-up!!ped!A,/F/c/!ped-up!!ped! C/B/=e/!ped-up!!ped!=E/c/b/!ped-up! | %233
 .[FAcf]!fff!!ped! [FAdf]2!ff! .[FAcf]!ped-up!!fff!!ped! [FAdf]2!ped-up! | %234
[K:bass]!ff! .[F,A,CF]!fff!!ped! [F,A,DF]2!ff! .[F,A,CF]!ped-up!!fff!!ped! [F,A,DF]2!ped-up! | %235
!ff!!ped! !arpeggio![F,,C,A,] z z[K:treble] (3d'/c'/a/(3f/b/a/(3f/c/g/!ped-up! | %236
 (3f/c/A/(3d/c/A/(3F/B/A/ (3F/C/G/(3F/C/A,/(3D/C/A,/ | %237
[K:bass] (3F,/B,/A,/(3F,/C,/G,/(3F,/C,/A,,/ (3D/C/A,/(3F,/B,/A,/(3F,/C,/G,/ | %238
 (3F,/C,/A,,/(3D,/C,/A,,/(3F,,/D,/C,/ (3A,,/F,,/D,/(3C,/A,,/F,,/(3D,/C,/A,,/ | %239
!ped! F,,!fff! z z [D,,D,] z z!ped-up! | [B,,,B,,] z z [C,,C,] z z | %241
!ped! !fermata![F,,,F,,]6!ped-up! |] %242
V:4
 x6 | x6 | x6 | x6 | x6 | x6 | C/=A,/G,/C,/C/A,/ x x2 | x4[K:treble] x2 | %8
[K:bass] x[K:treble] x2[K:bass] x[K:treble] x2 |[K:bass] x[K:treble] x2[K:bass] x[K:treble] x2 | %10
[K:bass] x6 | x6 | x[K:treble] x2[K:bass] x[K:treble] x2 | %13
[K:bass] x[K:treble] x2[K:bass] x[K:treble] x2 |[K:bass] x[K:treble] x2[K:bass] x[K:treble] x2 | %15
[K:bass] x[K:treble] x2[K:bass] x3 | x6 | x4[K:treble] x2 | %18
[K:bass] x[K:treble] x2[K:bass] x[K:treble] x2 |[K:bass] x[K:treble] x2[K:bass] x[K:treble] x2 | %20
[K:bass] x[K:treble] x2[K:bass] x[K:treble] x2 |[K:bass] x6 | x6 | x6 | x6 | x6 | x4[K:treble] x2 | %27
[K:bass] x[K:treble] x2[K:bass] x[K:treble] x2 | %28
[K:bass] x/[K:treble] x2[K:bass] x3/2[K:treble] x2 | %29
[K:bass] x[K:treble] x2[K:bass] x[K:treble] x2 |[K:bass] x6 | x6 | %32
 x[K:treble] x2[K:bass] x[K:treble] x2 |[K:bass] x[K:treble] x2[K:bass] x/[K:treble] x5/2 | %34
[K:bass] x[K:treble] x2[K:bass] x[K:treble] x2 |[K:bass] x[K:treble] x2[K:bass] x3 | x6 | x6 | x6 | %39
 x6 | x6 | x6 | x6 | x6 | x6 | x6 | x6 | x6 | x6 | x6 | x6 | x6 | x6 | x6 | x6 | x4[K:treble] x2 | %56
[K:bass] x6 | x6 | x6 | [F,,C,][C,F,A,C] [_F,,_F,] [E,,E,] E,E, | E,,/ E,/B,/E/D/E/ A,>F,F,/_F,/ | %61
 F,/E,/E,/[D,,D,]/[C,,C,]/[B,,,B,,]/ x x2 | x6 | x6 | x3 x/ F,/!mp!C/E/_G/F/ | x6 | x6 | x6 | x6 | %69
 x6 | x6 | x3 [A,,,A,,] x2 | [B,,,B,,] x2 [=C,,=C,] x2 | [F,,,F,,][K:treble] x2 F x2 | x6 | x6 | %76
 x6 | x7/2[K:bass] x5/2 | x6 | x6 | x6 | x6 | x6 | x6 | x6 | x6 | x6 | x6 | x6 | x6 | x6 | %91
 B,,3 x3 | x6 | x6 | x6 | x6 | x6 | x6 | x6 | ^F,,3 G,,3 | x6 | x6 | x6 | ^G,,3 =A,,3 | x6 | x6 | %106
 x6 | =D2"^poco cresc." ^F, G,=A,B,/=D,/ | x =D"^dim."[C^F] G,D_D | %109
 C2"^poco cresc." =E, =F,!mp!G,_A,/C,/ | x C"^dim."[B,=E] F,C[A,F] | x6 | x6 | x[K:treble] x5 | %114
[K:bass] x[K:treble] x5 |[K:bass] x[K:treble] x5 |[K:bass] x3[K:treble] x3 | x6 |[K:bass] x6 | %119
 A,,6 | A,,3 x3 | x6 | x6 | x6 | [A,,,A,,][E,,E,][A,,E,] [A,,E,]3- | [A,,E,]3 E3 | %126
 A,,,E,,A,,- A,,3 | ^G,^^F,/G,/F,/G,/ G3 | =A,,,/=E,/=A,/=B,/^C =D,,/A,/^F,/A,/=B,,/A,/ | %129
 =E,,/=E,/[=D,^G,]/E,/^C,/E,/ =A,,/E,/=A,/^F,/E, | %130
 =A,,,/=A,,/=E,/=B,/^C =D,,/=A,/^F,/A,/^F,,/^C,/ | ^E,,/^C,/^G,/C,/^F,,/C,/ ^C,,/^G,,/G,/C,/^C | %132
 =E,,/=E,/[=D,^G,]/E,/^C,/E,/ =A,,/E,/=A,/^F,/E,/A,,/ | =A,/^F,/=E,/=A,,/A,/F,/ !fermata!E,3- | %134
 E,/=A,/^C/[K:treble][I:staff -1]=E/=A/^c/[I:staff +1] x3 |[K:bass] x6 | x6 | x6 | x6 | %139
 _D!<(!=CB,- B,=A,!<)!=D, | G,G,,C,- C,_D,F, | =E,B,,D, C, z z | CDF =E_ED | DCF, B,B,,E, | %144
 A,, z z x3 | E, z[K:treble] =D E_FA | =G_G_F E[__EG][D_F] | [=C_E]=F,=F[K:bass] B,,[F,D] _A,, | %148
 x6 | x4[K:treble] x2 |[K:bass] x[K:treble] x2[K:bass] x[K:treble] x2 | %151
[K:bass] x[K:treble] x2[K:bass] x[K:treble] x2 |[K:bass] x[K:treble] x2[K:bass] x[K:treble] x2 | %153
[K:bass] x6 | x6 | x6 | x6 | x6 | x6 | x3/2[K:treble] x3/2[K:bass] x3/2[K:treble] x3/2 | %160
[K:bass] x3/2[K:treble] x3/2[K:bass] x3/2[K:treble] x3/2 |[K:bass] x6 | x6 | x6 | x6 | %165
 x3[K:treble] x3 | x4[K:bass] x2 | x6 | x6 | F,, z z z2 z | x6 | %171
 (3D,,/!pp!A,,/B,,/(3C,/D,/E,/(3F,/_G,/A,/ (3B,/A,/B,/(3C/D/E/[I:staff -1]F | %172
[I:staff +1] (3D,,/A,,/B,,/(3C,/D,/E,/(3F,/_G,/A,/ (3B,/A,/C/(3D/E/F/[I:staff -1]_G | %173
[I:staff +1] (3D,,/A,,/B,,/(3C,/D,/E,/(3F,/_G,/A,/ (3B,/A,/B,/(3_C/D/E/F | %174
 (3D,,/A,,/D,/(3F,/A,/D/(3A,/F/D/ (3A,/A/F/(3D/A,/F,/(3D,/A,,/A,/ | %175
 (3D,,/A,,/D,/(3A,/D,/A,,/(3D,/A,/D/ (3A,/D,/A,/(3D/A/D/(3A,/D,/A,/ | %176
 (3D/A,/D,/(3A,,/D,/A,/(3D,/A,,/D,,/ _G,,,/D,/(3D/_G,/D,/(3B,/G,/D,/ | x6 | x6 | x6 | x6 | x6 | %182
 x2[K:treble] x3[K:bass] x | x6 | x6 | x6 | x6 | x6 | x6 | x6 | x6 | x6 | x6 | %193
 x2[K:treble] x2[K:bass] x2 | x2[K:treble] x2[K:bass] x2 | x2[K:treble] x2[K:bass] x2 | %196
 x2[K:treble] x2[K:bass] x2 | x C,,/>F,,/(3A,,/=B,,/C,/ (3F,/A,/=B,/ x2 | x6 | %199
 x C,,/>!<(!F,,/(3A,,/=B,,/C,/ (3F,/A,/=B,/ x2!<)! | x6 | x6 | x6 | x6 | x6 | x6 | x6 | x6 | x6 | %209
 x6 | x6 | x6 | x6 | x6 | x6 | x6 | x6 | x6 | x6 | x6 | x6 | x6 | x6 | x6 | x6 | x2[K:treble] x4 | %226
 x[K:bass] x5 | x2[K:treble] x4 | x[K:bass] x5 | x6 | x6 | x6 |[K:treble] x6 | x6 |[K:bass] x6 | %235
 x3[K:treble] x3 | x6 |[K:bass] x3 (3D,/C,/A,,/(3F,,/B,,/A,,/(3F,,/C,,/G,,/ | %238
 (3F,,/C,,/A,,,/(3D,,/C,,/A,,,/(3F,,,/D,,/C,,/ (3A,,,/F,,,/D,,/(3C,,/A,,,/F,,,/(3D,,/C,,/A,,,/ | %239
 F,,, x z x x2 | x6 | x6 |] %242
V:5
 x6 | x6 | x6 | x6 | x6 | x6 | x6 | x6 | x6 | x6 | x6 | x6 | x6 | x6 | x6 | x6 | x6 | x6 | x6 | %19
 x6 | x6 | x6 | x6 | x6 | x6 | x6 | x6 | x6 | x6 | x6 | x6 | x6 | x6 | x6 | x6 | x6 | x6 | x6 | %38
 x6 | x6 | x6 | x6 | x6 | x6 | x6 | x6 | x6 | x6 | x6 | x6 | x6 | x6 | x =A2- A2 x | x6 | x6 | x6 | %56
 x6 | x6 | x6 | x6 | x6 | x6 | x3 E x2 | x3 E x2 | x6 | x3/2 B, x/ x3 | x6 | x6 | x6 | x6 | %70
 x[K:bass] x5 | x[K:treble] x5 | x6 | x4!8va(! x2 | x6 | x6!8va)! | x6 | x6 | x6 | x6 | x6 | x6 | %82
 x6 | x6 | x6 | x6 | x6 | x6 | x6 | x6 | x6 | x6 | x6 | x6 | x6 | x6 | x6 | x6 | x6 | x6 | x6 | %101
 x6 | x6 | x6 | x6 | x6 | x6 | x6 | x6 | x6 | x6 | x6 | x6 | x6 | x6 | x6 |!8va(! x6 | %117
 x3!8va)! x3 | x6 | x6 | x6 | x6 | x6 | x6 | x6 | x6 | x6 | x6 | x6 | x6 | x6 | x6 | x6 | x6 | x6 | %135
 x6 | x6 | x6 | x6 | x6 | x6 | x6 | x6 | x6 | x6 | x6 | x6 | x6 | x6 | x6 | x6 | x6 | x6 | x6 | %154
 x6 | x6 | x6 | x6 | x6 | x6 | x6 | x6 | x6 | x6 | x6 | x7/3!8va(! x8/3!8va)! x | x6 | x6 | x6 | %169
 x6 | x6 | x6 | x6 | x6 | x6 | x6 | x6 | x6 | x6 | x6 | x6 | x6 | x6 | x6 | x6 | x6 | x6 | x6 | %188
 x6 | x6 | x6 | x6 | x6 | x6 | x6 | x6 | x6 | x6 | x6 | x6 | x6 | x6 | x6 | x6 | x6 | x6 | x6 | %207
 x6 | x6 | x6 | x6 | x6 | x6 | x6 | x6 | x6 | x6 | x6 | e x3 x2 | x6 | x6 | x6 |[K:bass] x6 | x6 | %224
 x6 |[K:treble] x4!8va(! x2 | x!8va)! x5 | x4!8va(! x2 | x!8va)! x5 | x[K:bass] x4[K:treble] x | %230
 x6 | x6 | x6 | x/3!8va(! x17/3!8va)! | x6 | x2!8va(! x4!8va)! | x6 | x6 | x6 | x6 | x6 | x6 |] %242
V:6
 x6 | x6 | x6 | x6 | x6 | x6 | x6 | x4[K:treble] x2 | %8
[K:bass] x[K:treble] x2[K:bass] x[K:treble] x2 |[K:bass] x[K:treble] x2[K:bass] x[K:treble] x2 | %10
[K:bass] x6 | x6 | x[K:treble] x2[K:bass] x[K:treble] x2 | %13
[K:bass] x[K:treble] x2[K:bass] x[K:treble] x2 |[K:bass] x[K:treble] x2[K:bass] x[K:treble] x2 | %15
[K:bass] x[K:treble] x2[K:bass] x3 | x6 | x4[K:treble] x2 | %18
[K:bass] x[K:treble] x2[K:bass] x[K:treble] x2 |[K:bass] x[K:treble] x2[K:bass] x[K:treble] x2 | %20
[K:bass] x[K:treble] x2[K:bass] x[K:treble] x2 |[K:bass] x6 | x6 | x6 | x6 | x6 | x4[K:treble] x2 | %27
[K:bass] x[K:treble] x2[K:bass] x[K:treble] x2 | %28
[K:bass] x/[K:treble] x2[K:bass] x3/2[K:treble] x2 | %29
[K:bass] x[K:treble] x2[K:bass] x[K:treble] x2 |[K:bass] x6 | x6 | %32
 x[K:treble] x2[K:bass] x[K:treble] x2 |[K:bass] x[K:treble] x2[K:bass] x/[K:treble] x5/2 | %34
[K:bass] x[K:treble] x2[K:bass] x[K:treble] x2 |[K:bass] x[K:treble] x2[K:bass] x3 | x6 | x6 | x6 | %39
 x6 | x6 | x6 | x6 | x6 | x6 | x6 | x6 | x6 | x6 | x6 | x6 | x6 | x6 | x6 | x6 | x4[K:treble] x2 | %56
[K:bass] x6 | x6 | x6 | x6 | x6 | x6 | x6 | x6 | x6 | x6 | x6 | x6 | x6 | x6 | x6 | x6 | x6 | %73
 x/[K:treble] x11/2 | x6 | x6 | x6 | x7/2[K:bass] x5/2 | x6 | x6 | x6 | x6 | x6 | x6 | x6 | x6 | %86
 x6 | x6 | x6 | x6 | x6 | x6 | x6 | x6 | x6 | x6 | x6 | x6 | x6 | x6 | x6 | x6 | x6 | x6 | x6 | %105
 x6 | x6 | x6 | x6 | x6 | x6 | x6 | x6 | x[K:treble] x5 |[K:bass] x[K:treble] x5 | %115
[K:bass] x[K:treble] x5 |[K:bass] x3[K:treble] x3 | x6 |[K:bass] x6 | x6 | x6 | x6 | x6 | x6 | %124
 x3 z B,B, | B,=A,/B,/A,/B,/ x3 | A,,E,A,- A,A,A, | ^G,,3 x x2 | x6 | x3 =A,,3 | x6 | x6 | x6 | %133
 x3/2 =A,,3/2- A,,3 | x3/2[K:treble] x9/2 |[K:bass] x6 | x6 | x6 | x6 | x6 | x2 C, F,, x2 | x6 | %142
 x6 | x3 x2 E, | E,_F,A, G,D,F, | x2[K:treble] x4 | x6 | x3[K:bass] x3 | x6 | x4[K:treble] x2 | %150
[K:bass] x[K:treble] x2[K:bass] x[K:treble] x2 |[K:bass] x[K:treble] x2[K:bass] x[K:treble] x2 | %152
[K:bass] x[K:treble] x2[K:bass] x[K:treble] x2 |[K:bass] x6 | x6 | x6 | x6 | x6 | x6 | %159
 x3/2[K:treble] x3/2[K:bass] x3/2[K:treble] x3/2 | %160
[K:bass] x3/2[K:treble] x3/2[K:bass] x3/2[K:treble] x3/2 |[K:bass] x6 | x6 | x6 | x6 | %165
 x3[K:treble] x3 | x4[K:bass] x2 | x6 | x6 | x6 | x6 | x6 | x6 | x6 | x6 | x6 | x6 | x6 | x6 | x6 | %180
 x6 | x6 | x2[K:treble] x3[K:bass] x | x6 | x6 | x6 | x6 | x6 | x6 | x6 | x6 | x6 | x6 | %193
 x2[K:treble] x2[K:bass] x2 | x2[K:treble] x2[K:bass] x2 | x2[K:treble] x2[K:bass] x2 | %196
 x2[K:treble] x2[K:bass] x2 | x6 | x6 | x6 | x6 | x6 | x6 | x6 | x6 | x6 | x6 | x6 | x6 | x6 | x6 | %211
 x6 | x6 | x6 | x6 | x6 | x6 | x6 | x6 | x6 | D,2 B,, x3 | x6 | x6 | x6 | x6 | x2[K:treble] x4 | %226
 x[K:bass] x5 | x2[K:treble] x4 | x[K:bass] x5 | x6 | x6 | x6 |[K:treble] x6 | x6 |[K:bass] x6 | %235
 x3[K:treble] x3 | x6 |[K:bass] x6 | x6 | x6 | x6 | x6 |] %242

